X: 30466
T: Old Wheels Of The World, The
R: reel
M: 4/4
K: Gmajor
gf||e.A.AB cBcA|GE ~E2 ~G3 E|A3 B cBcd|efge dg (3.f.g.f|
e.A.AB cBcA|GE E2 ~G3 E|(3.A.c.A AB cBcd|efge dcBc||
dg ~g2 dg ~g2|ea ~a2 ea ~a2|efge d2 (3efg|af (3.g.f.e .d.cBc|
dg ~g2 dg ~g2|ea ~a2 ea ~a2|efge d2 (3efg|afge dg (3.f.g.f||

